images/Contant_clients_logos/constant_clients_logo-3.svg

<svg width="41" height="43" viewBox="0 0 41 43" fill="none" xmlns="http://www.w3.org/2000/svg">
<path d="M6.34566 41.7946C6.36067 41.795 6.37546 41.7982 6.38915 41.8041C6.40284 41.81 6.41516 41.8184 6.42539 41.8289L6.63116 42.0446C6.47144 42.2191 6.27403 42.3588 6.05243 42.4539C5.79293 42.5577 5.51326 42.6078 5.23192 42.6009C4.96755 42.6061 4.70488 42.5594 4.46028 42.4637C4.23964 42.3758 4.04139 42.2437 3.87898 42.0764C3.71321 41.9029 3.58553 41.6996 3.50344 41.4784C3.41355 41.2318 3.36916 40.9723 3.37226 40.7113C3.36861 40.4486 3.4166 40.1875 3.51373 39.9417C3.60359 39.7191 3.73912 39.5158 3.91241 39.3436C4.08805 39.1749 4.29815 39.0423 4.52973 38.9539C4.78306 38.8604 5.05283 38.8138 5.32452 38.8167C5.57689 38.8108 5.82792 38.8534 6.06272 38.9417C6.26644 39.0259 6.45349 39.1428 6.61573 39.2873L6.4434 39.5177C6.43149 39.5339 6.41669 39.548 6.39967 39.5593C6.37934 39.5726 6.35477 39.5787 6.33022 39.5765C6.30353 39.5747 6.27779 39.5663 6.25563 39.552L6.16303 39.4907L6.03443 39.4123C5.97891 39.3832 5.92133 39.3578 5.86209 39.3363C5.78581 39.3103 5.70756 39.2898 5.62803 39.275C5.52709 39.2573 5.42457 39.2491 5.32195 39.2505C5.12631 39.2482 4.93215 39.2832 4.75093 39.3534C4.58192 39.4185 4.42937 39.5171 4.30338 39.6427C4.17512 39.7762 4.07629 39.9329 4.01273 40.1034C3.94029 40.2985 3.90458 40.5043 3.90727 40.7113C3.90418 40.9214 3.93988 41.1305 4.01273 41.3289C4.07549 41.498 4.1725 41.6537 4.29823 41.7872C4.41604 41.9117 4.56206 42.0089 4.72521 42.0715C4.89311 42.1379 5.07333 42.1712 5.25507 42.1696C5.36005 42.1711 5.465 42.1646 5.56887 42.15C5.73848 42.1302 5.90118 42.0741 6.04472 41.9858C6.11671 41.9405 6.18467 41.8897 6.24792 41.8338C6.27436 41.8098 6.30914 41.7958 6.34566 41.7946Z" fill="#AFB1B8"/>
<path d="M12.2871 40.7108C12.2903 40.9709 12.2432 41.2292 12.1482 41.473C12.0644 41.6941 11.9323 41.8958 11.7608 42.0648C11.5892 42.2338 11.382 42.3662 11.1528 42.4533C10.6492 42.6363 10.0925 42.6363 9.58896 42.4533C9.36125 42.3648 9.15539 42.2321 8.98452 42.0636C8.81305 41.8916 8.68004 41.6882 8.59356 41.4657C8.40827 40.972 8.40827 40.4325 8.59356 39.9388C8.6813 39.7162 8.81414 39.5122 8.98452 39.3384C9.15685 39.1752 9.3626 39.0476 9.58896 38.9635C10.0919 38.7772 10.6499 38.7772 11.1528 38.9635C11.3813 39.0519 11.588 39.1846 11.7598 39.3531C11.9292 39.5235 12.0612 39.7243 12.1482 39.9437C12.2435 40.1892 12.2906 40.4492 12.2871 40.7108ZM11.747 40.7108C11.751 40.5028 11.718 40.2956 11.6492 40.0981C11.5916 39.929 11.4979 39.7729 11.374 39.6399C11.2534 39.5139 11.1049 39.4152 10.9393 39.3507C10.5734 39.2167 10.1684 39.2167 9.80245 39.3507C9.63684 39.4152 9.48836 39.5139 9.36776 39.6399C9.24215 39.7722 9.14747 39.9284 9.08997 40.0981C8.9591 40.4971 8.9591 40.9246 9.08997 41.3235C9.14803 41.4931 9.24265 41.6492 9.36776 41.7818C9.48851 41.907 9.637 42.0049 9.80245 42.0685C10.169 42.1991 10.5728 42.1991 10.9393 42.0685C11.1048 42.0049 11.2533 41.907 11.374 41.7818C11.4974 41.6484 11.591 41.4925 11.6492 41.3235C11.7183 41.1261 11.7513 40.9189 11.747 40.7108Z" fill="#AFB1B8"/>
<path d="M16.3408 41.3532L16.3948 41.4904C16.4154 41.4414 16.4334 41.3973 16.4539 41.3532C16.4736 41.3071 16.4959 41.2621 16.5208 41.2184L17.8352 38.942C17.8609 38.9028 17.884 38.8783 17.9098 38.8709C17.9447 38.8608 17.9813 38.8566 18.0178 38.8587H18.4062V42.5613H17.9458V39.8388C17.9458 39.8045 17.9458 39.7653 17.9458 39.7237C17.9433 39.6812 17.9433 39.6387 17.9458 39.5962L16.6237 41.9046C16.6069 41.9391 16.58 41.9684 16.5463 41.9888C16.5125 42.0092 16.4733 42.02 16.4334 42.0197H16.3588C16.3187 42.0203 16.2794 42.0097 16.2456 41.9892C16.2118 41.9687 16.185 41.9393 16.1684 41.9046L14.8078 39.5815C14.8078 39.6256 14.8078 39.6698 14.8078 39.7139C14.8078 39.758 14.8078 39.7972 14.8078 39.8315V42.5539H14.3628V38.8587H14.7512C14.7877 38.8566 14.8243 38.8608 14.8592 38.8709C14.8911 38.886 14.9165 38.9111 14.9312 38.942L16.2739 41.2209C16.3003 41.263 16.3227 41.3073 16.3408 41.3532Z" fill="#AFB1B8"/>
<path d="M21.2869 41.1692V42.5562H20.7725V38.8585H21.9196C22.1362 38.8546 22.3521 38.8818 22.5601 38.9394C22.7266 38.9843 22.881 39.0629 23.0128 39.1697C23.127 39.2699 23.2151 39.394 23.27 39.5324C23.3307 39.6832 23.3604 39.8438 23.3575 40.0053C23.3597 40.1675 23.3274 40.3284 23.2623 40.4782C23.2005 40.6201 23.1054 40.7466 22.9845 40.8482C22.8525 40.9595 22.6974 41.043 22.5292 41.0933C22.329 41.1542 22.1195 41.1832 21.9093 41.179L21.2869 41.1692ZM21.2869 40.7723H21.9093C22.0446 40.7739 22.1792 40.7549 22.308 40.7159C22.4143 40.6818 22.5123 40.6277 22.5961 40.5566C22.6734 40.4888 22.7332 40.405 22.771 40.3116C22.8131 40.2128 22.8341 40.107 22.8327 40.0004C22.8387 39.8976 22.8211 39.7948 22.7811 39.6992C22.7412 39.6035 22.6798 39.5174 22.6013 39.4466C22.4047 39.3004 22.1579 39.2296 21.9093 39.2481H21.2869V40.7723Z" fill="#AFB1B8"/>
<path d="M28.2007 42.5612H27.7943C27.7536 42.5626 27.7135 42.5505 27.6812 42.5268C27.652 42.5038 27.6291 42.4744 27.6143 42.4411L27.2645 41.5466H25.5077L25.145 42.4411C25.1317 42.4738 25.1095 42.5025 25.0807 42.5244C25.048 42.5495 25.007 42.5625 24.965 42.5612H24.5586L26.1019 38.8582H26.6369L28.2007 42.5612ZM25.6543 41.1863H27.105L26.4928 39.6791C26.4461 39.5658 26.4074 39.4495 26.3771 39.3311L26.3179 39.5247C26.2999 39.5836 26.2794 39.6375 26.2614 39.6816L25.6543 41.1863Z" fill="#AFB1B8"/>
<path d="M30.4233 38.8754C30.4541 38.8915 30.4805 38.9141 30.5005 38.9416L32.7511 41.7329C32.7511 41.6887 32.7511 41.6446 32.7511 41.603C32.7511 41.5613 32.7511 41.5197 32.7511 41.4804V38.8582H33.2115V42.5612H32.9543C32.9178 42.5622 32.8816 42.5547 32.8489 42.5391C32.8171 42.5215 32.7892 42.4982 32.7666 42.4705L30.5185 39.6817C30.521 39.7241 30.521 39.7666 30.5185 39.8091C30.5185 39.8508 30.5185 39.8875 30.5185 39.9218V42.5612H30.0581V38.8582H30.3308C30.3626 38.8574 30.3942 38.8632 30.4233 38.8754Z" fill="#AFB1B8"/>
<path d="M37.0028 41.0884V42.5588H36.4883V41.0884L35.0659 38.8584H35.5263C35.566 38.8561 35.6052 38.8674 35.6369 38.8902C35.6649 38.914 35.6884 38.9422 35.7064 38.9735L36.5964 40.4121C36.6324 40.4733 36.6632 40.5297 36.689 40.5836C36.7147 40.6375 36.7353 40.689 36.7533 40.7405L36.8201 40.5812C36.8451 40.5229 36.8743 40.4664 36.9076 40.4121L37.7847 38.9637C37.8031 38.9348 37.8256 38.9084 37.8516 38.8853C37.8821 38.8599 37.9217 38.8467 37.9622 38.8486H38.4277L37.0028 41.0884Z" fill="#AFB1B8"/>
<path d="M16.0859 32.6443C16.3097 32.6712 16.5361 32.6933 16.765 32.7129C20.2356 31.2337 23.1716 28.8127 25.206 25.7526C27.2404 22.6924 28.283 19.1289 28.2033 15.5073L24.3785 11.8633C25.1562 15.7191 24.7925 19.705 23.3279 23.3751C21.8634 27.0452 19.3559 30.2546 16.0859 32.6443Z" fill="#AFB1B8"/>
<path d="M14.7202 32.4748L14.8231 32.4944C18.3173 30.1132 20.9814 26.788 22.4708 22.9488C23.9601 19.1097 24.2063 14.9331 23.1774 10.9592L17.7296 5.76904C19.9331 10.0353 20.82 14.8098 20.2873 19.5374C19.7546 24.265 17.824 28.7514 14.7202 32.4748Z" fill="#AFB1B8"/>
<path d="M33.1959 19.7861C32.2704 23.7654 30.0225 27.3541 26.7861 30.0196C25.841 30.8023 24.8214 31.4996 23.7407 32.1025C26.3761 31.3646 28.7983 30.0598 30.8207 28.289C32.8432 26.5181 34.4117 24.3284 35.4054 21.8887L33.1959 19.7861Z" fill="#AFB1B8"/>
<path d="M32.3292 19.2002L29.1835 16.2031C29.1233 19.6201 28.1037 22.9594 26.2306 25.8739C24.3575 28.7885 21.6993 31.1718 18.5322 32.7764H18.5477C19.2534 32.7761 19.9586 32.736 20.6594 32.6563C23.6192 31.5053 26.2339 29.6742 28.2702 27.3262C30.3064 24.9782 31.7009 22.1865 32.3292 19.2002Z" fill="#AFB1B8"/>
<path d="M15.1757 3.5803L11.4229 0C8.06808 1.23513 5.18278 3.40643 3.14464 6.22973C1.1065 9.05304 0.0104686 12.3968 0 15.8234H0C0.0125737 19.6097 1.3502 23.2838 3.80116 26.2643C6.25213 29.2448 9.67642 31.3614 13.5321 32.2791C16.974 28.2838 18.9892 23.347 19.2847 18.186C19.5803 13.025 18.1409 7.90862 15.1757 3.5803Z" fill="#AFB1B8"/>
<path d="M41.0002 18.649C40.9867 14.1568 39.1076 9.85223 35.7735 6.67574C32.4394 3.49924 27.9213 1.70898 23.2062 1.69605C21.0274 1.6939 18.8671 2.07696 16.835 2.82576L39.8119 24.7166C40.5987 22.7815 41.0016 20.7241 41.0002 18.649Z" fill="#AFB1B8"/>
</svg>

<svg xmlns="http://www.w3.org/2000/svg" width="41" height="43" fill="#afb1b8" xmlns:v="https://vecta.io/nano"><path d="M6.346 41.795c.015 0 .03.004.043.01s.026.014.036.025l.206.216a1.7 1.7 0 0 1-.58.41 2.07 2.07 0 0 1-.82.147 2.01 2.01 0 0 1-.772-.137 1.67 1.67 0 0 1-.581-.387c-.166-.173-.293-.377-.376-.598-.1-.247-.134-.506-.13-.767a2.03 2.03 0 0 1 .14-.77 1.92 1.92 0 0 1 .4-.598 2 2 0 0 1 .617-.4 2.23 2.23 0 0 1 .795-.137 1.97 1.97 0 0 1 .738.125 1.95 1.95 0 0 1 .553.346l-.172.23c-.012.016-.027.03-.044.042s-.045.02-.07.017-.052-.01-.075-.025l-.093-.06-.13-.078a1.4 1.4 0 0 0-.172-.076 1.46 1.46 0 0 0-.234-.06 1.56 1.56 0 0 0-.306-.024 1.53 1.53 0 0 0-.571.103 1.29 1.29 0 0 0-.448.289 1.34 1.34 0 0 0-.291.461 1.68 1.68 0 0 0-.105.608 1.72 1.72 0 0 0 .105.618 1.36 1.36 0 0 0 .285.458 1.16 1.16 0 0 0 .427.284 1.41 1.41 0 0 0 .53.098c.105.002.2-.005.314-.02.17-.02.332-.076.476-.164a1.51 1.51 0 0 0 .203-.152c.026-.024.06-.038.098-.04zm5.94-1.085a2.03 2.03 0 0 1-.139.762c-.084.22-.216.423-.387.592s-.38.3-.608.4c-.504.183-1.06.183-1.564 0a1.63 1.63 0 0 1-.604-.4 1.74 1.74 0 0 1-.391-.598 2.17 2.17 0 0 1 0-1.527c.088-.223.22-.427.4-.6a1.78 1.78 0 0 1 .604-.375 2.26 2.26 0 0 1 1.564 0 1.64 1.64 0 0 1 .607.4 1.82 1.82 0 0 1 .388.59c.095.245.142.505.14.767zm-.54 0a1.76 1.76 0 0 0-.098-.613 1.26 1.26 0 0 0-.275-.458 1.21 1.21 0 0 0-.435-.289 1.66 1.66 0 0 0-1.137 0 1.21 1.21 0 0 0-.435.289 1.26 1.26 0 0 0-.278.458 1.96 1.96 0 0 0 0 1.225c.058.17.153.326.278.458a1.21 1.21 0 0 0 .435.287 1.7 1.7 0 0 0 1.137 0 1.2 1.2 0 0 0 .435-.287c.123-.133.217-.3.275-.458a1.73 1.73 0 0 0 .098-.613zm4.593.643l.054.137.06-.137a1.32 1.32 0 0 1 .067-.135l1.314-2.276c.026-.04.05-.064.075-.07a.33.33 0 0 1 .108-.012h.388v3.703h-.46v-2.965l-1.322 2.308c-.017.035-.044.064-.077.084a.22.22 0 0 1-.113.03h-.075a.21.21 0 0 1-.113-.03.2.2 0 0 1-.077-.085l-1.36-2.323v2.972h-.445V38.86h.388a.33.33 0 0 1 .108.012.15.15 0 0 1 .072.071l1.343 2.28c.026.042.05.086.067.132zm4.947-.183v1.387h-.514V38.86h1.147a2.25 2.25 0 0 1 .64.081 1.23 1.23 0 0 1 .453.23.95.95 0 0 1 .257.363 1.21 1.21 0 0 1 .088.473c.002.162-.03.323-.095.473a1.01 1.01 0 0 1-.278.37 1.27 1.27 0 0 1-.455.245c-.2.06-.4.1-.62.086l-.622-.01zm0-.397h.622a1.32 1.32 0 0 0 .399-.056.83.83 0 0 0 .288-.16.65.65 0 0 0 .175-.245.77.77 0 0 0 .062-.311.67.67 0 0 0-.052-.3.71.71 0 0 0-.18-.253 1.03 1.03 0 0 0-.692-.198h-.622v1.524zM28.2 42.56h-.406c-.04.001-.08-.01-.113-.034s-.052-.052-.067-.086l-.35-.895h-1.757l-.363.895a.2.2 0 0 1-.064.083c-.033.025-.074.038-.116.037h-.406l1.543-3.703h.535L28.2 42.56zm-2.546-1.375h1.45l-.612-1.507a2.68 2.68 0 0 1-.116-.348l-.06.194-.057.157-.607 1.505zm4.77-2.3c.03.016.057.04.077.066l2.25 2.8v-2.875h.46v3.703h-.257a.23.23 0 0 1-.105-.022.25.25 0 0 1-.082-.07l-2.248-2.8c.003.042.003.085 0 .127v2.752h-.46v-3.703h.273a.23.23 0 0 1 .093.017zm6.58 2.213v1.47h-.514v-1.47l-1.422-2.23h.46c.04-.002.08.01.1.032s.052.052.07.083l.9 1.44.093.17a1.44 1.44 0 0 1 .064.157l.067-.16c.025-.058.054-.115.088-.17l.877-1.448c.018-.03.04-.055.067-.078s.07-.04.1-.037h.465l-1.425 2.24zm-20.917-8.444l.68.07c3.47-1.48 6.407-3.9 8.44-6.96s3.077-6.624 2.997-10.245l-3.825-3.644a20.22 20.22 0 0 1-1.051 11.512c-1.465 3.67-3.972 6.88-7.242 9.27zm-1.366-.17l.103.02c3.494-2.38 6.158-5.706 7.648-9.546a19.54 19.54 0 0 0 .707-11.99l-5.448-5.2c2.203 4.266 3.1 9.04 2.558 13.768s-2.463 9.214-5.567 12.937zm18.476-12.69c-.925 3.98-3.173 7.568-6.4 10.234-.945.783-1.965 1.48-3.045 2.083 2.635-.738 5.058-2.043 7.08-3.813s3.6-3.96 4.585-6.4l-2.2-2.103zm-.866-.586l-3.146-2.997a18.47 18.47 0 0 1-2.953 9.67c-1.873 2.914-4.53 5.298-7.698 6.903h.015a18.76 18.76 0 0 0 2.112-.12c2.96-1.15 5.574-2.982 7.6-5.33s3.43-5.14 4.06-8.126zM15.176 3.58L11.423 0c-3.355 1.235-6.24 3.406-8.278 6.23S.01 12.397 0 15.823h0c.013 3.786 1.35 7.46 3.8 10.44s5.875 5.097 9.73 6.015c3.442-3.995 5.457-8.932 5.753-14.093S18.14 7.9 15.176 3.58zM41 18.65c-.014-4.492-1.893-8.797-5.227-11.973S27.92 1.7 23.206 1.696a18.34 18.34 0 0 0-6.37 1.13l22.977 21.9A16.07 16.07 0 0 0 41 18.649z"/></svg>
